art/person.svg

<?xml version="1.0" encoding="UTF-8" standalone="no"?>
<!-- Created with Inkscape (http://www.inkscape.org/) -->

<svg
   sodipodi:docname="person.svg"
   inkscape:version="1.2.1 (2ed6d7ae0b, 2022-08-22, custom)"
   id="svg10609"
   version="1.1"
   viewBox="0 0 100 100"
   height="100mm"
   width="100mm"
   xmlns:inkscape="http://www.inkscape.org/namespaces/inkscape"
   xmlns:sodipodi="http://sodipodi.sourceforge.net/DTD/sodipodi-0.dtd"
   xmlns="http://www.w3.org/2000/svg"
   xmlns:svg="http://www.w3.org/2000/svg">
  <sodipodi:namedview
     id="namedview10611"
     pagecolor="#ffffff"
     bordercolor="#000000"
     borderopacity="0.25"
     inkscape:showpageshadow="2"
     inkscape:pageopacity="0.0"
     inkscape:pagecheckerboard="0"
     inkscape:deskcolor="#d1d1d1"
     inkscape:document-units="mm"
     showgrid="false"
     inkscape:zoom="4.1691932"
     inkscape:cx="183.72859"
     inkscape:cy="210.71223"
     inkscape:window-width="1846"
     inkscape:window-height="1016"
     inkscape:window-x="74"
     inkscape:window-y="27"
     inkscape:window-maximized="1"
     inkscape:current-layer="layer1" />
  <defs
     id="defs10606" />
  <g
     inkscape:label="Layer 1"
     inkscape:groupmode="layer"
     id="layer1">
    <path
       style="fill:#ffccaa;fill-opacity:1;stroke:none;stroke-width:1.03588;stroke-opacity:1"
       d="m 39.18763,58.0533 5.213642,-0.607561 0.598357,-14.837419 -5.954604,-0.03527"
       id="leftArm2"
       sodipodi:nodetypes="cccc"
       inkscape:transform-center-x="-0.17517316"
       inkscape:transform-center-y="7.635025">
      <desc
         id="desc18761-5-2">{
    &quot;connectTo&quot;: &quot;leftArm1&quot;
}</desc>
    </path>
    <path
       style="fill:#ffccaa;fill-opacity:1;stroke:none;stroke-width:1.03588;stroke-opacity:1"
       d="m 39.461037,67.037093 -0.108489,3.430177 2.088649,1.512815 4.597727,-1.124962 -0.184335,-2.900439 -0.950107,-2.082783 -0.496319,-8.437998 -2.737133,-2.370044 -2.525815,2.067701"
       id="leftArm3"
       sodipodi:nodetypes="ccccccccc"
       inkscape:transform-center-x="-1.510401"
       inkscape:transform-center-y="7.0148374">
      <desc
         id="desc18761-5-6-0">{
    &quot;connectTo&quot;: &quot;leftArm2&quot;
}</desc>
    </path>
    <path
       style="fill:#000080;fill-opacity:1;stroke:none;stroke-width:1.03588;stroke-opacity:1"
       d="m 39.437848,36.464676 -1.442526,6.609595 8.730298,-0.0983 -0.936622,-6.57511 -1.779824,-0.987795 -2.578517,-0.0278 -1.992809,1.07941"
       id="leftArm1"
       sodipodi:nodetypes="ccccccc"
       inkscape:transform-center-x="-0.12042133"
       inkscape:transform-center-y="1.303412">
      <desc
         id="desc18761-3">{
    &quot;connectTo&quot;: &quot;body&quot;
}</desc>
    </path>
    <path
       style="fill:#550000;stroke-width:0.264583"
       d="m 26.077964,66.055093 4.606698,5.814987 5.471939,0.04242 4.90882,-5.488911 z"
       id="pantsTop"
       sodipodi:nodetypes="ccccc"
       inkscape:transform-center-x="-0.43027696"
       inkscape:transform-center-y="7.7052848">
      <desc
         id="desc908-9-5">{
    &quot;connectTo&quot;: &quot;body&quot;
}</desc>
    </path>
    <path
       style="fill:#550000;stroke-width:0.264583"
       d="m 33.970279,78.198419 -0.998643,4.944842 0.886556,10.467098 6.884312,-0.492845 -0.138671,-10.598657 -1.518692,-4.863658 z"
       id="rightLeg2"
       sodipodi:nodetypes="ccccccc"
       inkscape:transform-center-x="-0.042614076"
       inkscape:transform-center-y="4.6442077">
      <desc
         id="desc908-0-0">{
    &quot;connectTo&quot;: &quot;rightLeg1&quot;
}</desc>
    </path>
    <path
       style="fill:#000000;stroke-width:0.264583"
       d="m 33.466196,93.069413 -0.4538,6.86356 16.174536,0.0813 -0.362041,-2.921654 -4.142355,-0.60796 -2.941005,-3.31485 z"
       id="rightLeg3"
       sodipodi:nodetypes="ccccccc"
       inkscape:transform-center-x="-3.4307351"
       inkscape:transform-center-y="3.358924">
      <desc
         id="desc1220-3">{
    &quot;connectTo&quot;: &quot;rightLeg2&quot;
}</desc>
    </path>
    <path
       style="fill:#550000;stroke-width:0.264583"
       d="M 31.748706,65.350976 32.977058,83.1377 40.644913,82.483239 41.210981,64.648502 Z"
       id="rightLeg1"
       sodipodi:nodetypes="ccccc"
       inkscape:transform-center-x="-0.43027696"
       inkscape:transform-center-y="7.7052848">
      <desc
         id="desc908-9">{
    &quot;connectTo&quot;: &quot;body&quot;
}</desc>
    </path>
    <path
       style="fill:#550000;stroke-width:0.264583"
       d="m 26.231453,77.956806 -1.395399,4.847846 0.03688,10.504509 6.901618,0.06569 0.719197,-10.575135 -1.120253,-4.970576 z"
       id="leftLeg2"
       sodipodi:nodetypes="ccccccc"
       inkscape:transform-center-x="0.17568806"
       inkscape:transform-center-y="4.6341045">
      <desc
         id="desc908-0">{
    &quot;connectTo&quot;: &quot;leftLeg1&quot;
}</desc>
    </path>
    <path
       style="fill:#000000;stroke-width:0.264583"
       d="m 24.300681,93.041291 -0.4538,6.863559 16.174536,0.08126 -0.362041,-2.921657 -4.142355,-0.607965 -2.941005,-3.314843 z"
       id="leftLeg3"
       sodipodi:nodetypes="ccccccc"
       inkscape:transform-center-x="-3.7710057"
       inkscape:transform-center-y="3.4891278">
      <desc
         id="desc1220">{
    &quot;connectTo&quot;: &quot;leftLeg2&quot;
}</desc>
    </path>
    <path
       style="fill:#550000;stroke-width:0.264583"
       d="m 28.996749,62.383723 -3.320492,4.022094 -0.834349,16.393731 7.695668,-0.032 1.469004,-16.552731"
       id="leftLeg1"
       sodipodi:nodetypes="ccccc"
       inkscape:transform-center-x="0.14846029"
       inkscape:transform-center-y="5.5769306">
      <desc
         id="desc908">{
    &quot;connectTo&quot;: &quot;body&quot;
}</desc>
    </path>
    <path
       style="fill:#2b0000;stroke:none;stroke-width:1.03588;stroke-opacity:1"
       d="m 30.255297,68.264944 7.270206,-0.420189 4.002912,-1.659833 1.493503,-27.850054 -3.031499,-5.471311 -13.13508,0.254571 -3.169227,11.852411 1.279355,21.426937"
       id="body"
       sodipodi:nodetypes="cccccccc"
       inkscape:transform-center-x="0.79391521"
       inkscape:transform-center-y="-49.981786" />
    <path
       style="fill:#ffccaa;fill-opacity:1;stroke:none;stroke-width:1.03588;stroke-opacity:1"
       d="m 21.685261,57.867747 2.22633,1.88513 3.006198,-2.299684 1.146046,-14.805189 -6.070016,-0.249494"
       id="rightArm2"
       sodipodi:nodetypes="ccccc"
       inkscape:transform-center-x="-0.38024573"
       inkscape:transform-center-y="7.4654316">
      <desc
         id="desc18761-5">{
    &quot;connectTo&quot;: &quot;rightArm1&quot;
}</desc>
    </path>
    <path
       style="fill:#ffccaa;fill-opacity:1;stroke:none;stroke-width:1.03588;stroke-opacity:1"
       d="m 21.62662,66.855508 -0.235127,3.423828 2.03134,1.588937 4.636146,-0.954353 1.561424,-3.788953 -2.623529,-0.493378 -0.07176,-9.189969 -3.33741,-3.035085 -1.910776,2.538534"
       id="rightArm3"
       sodipodi:nodetypes="ccccccccc"
       inkscape:transform-center-x="-1.340209"
       inkscape:transform-center-y="7.0828346">
      <desc
         id="desc18761-5-6">{
    &quot;connectTo&quot;: &quot;rightArm2&quot;
}</desc>
    </path>
    <path
       style="fill:#ffccaa;fill-opacity:1;stroke:none;stroke-width:1.03588;stroke-opacity:1"
       d="m 41.855644,12.463017 -7.697696,-1.780394 -8.505211,0.986082 0.07841,11.948952 2.389592,5.779425 2.184289,3.752824 6.044361,0.0306 2.588319,-3.544498 4.005339,0.05453 1.095457,-5.426869 -0.122099,-6.720152"
       id="face"
       sodipodi:nodetypes="ccccccccccc">
      <desc
         id="desc230">{
    &quot;connectTo&quot;: &quot;body&quot;
}</desc>
    </path>
    <path
       style="fill:#000080;fill-opacity:1;stroke:none;stroke-width:1.03588;stroke-opacity:1"
       d="m 22.732797,36.3031 -1.685701,6.551796 8.727969,0.224266 -0.693095,-6.60522 -1.742121,-1.052869 -2.57573,-0.123037 -2.031315,1.005072"
       id="rightArm1"
       sodipodi:nodetypes="ccccccc"
       inkscape:transform-center-x="0.1083783"
       inkscape:transform-center-y="1.1257606">
      <desc
         id="desc18761">{
    &quot;connectTo&quot;: &quot;body&quot;
}</desc>
    </path>
    <path
       style="fill:#550000;stroke-width:0.29905"
       d="m 33.226442,8.5115129 -9.144355,3.3058431 -3.126452,8.891404 3.003795,6.043294 5.0306,1.68803 -1.890806,-7.585176 2.05906,-1.866815 1.745372,4.292489 2.022046,0.281165 1.346765,-8.10303 9.158588,-1.999387 3.105267,-6.3030465 -6.527511,1.2816679 z"
       id="hair"
       sodipodi:nodetypes="cccccccccccccc">
      <desc
         id="desc793">{
    &quot;connectTo&quot;: &quot;face&quot;
}</desc>
    </path>
    <path
       style="fill:#2b0000;stroke-width:0.210546"
       d="m 38.276431,17.525099 -1.061208,1.929256 1.113843,1.819031 0.864729,-1.923759 z"
       id="rightEye"
       sodipodi:nodetypes="ccccc">
      <desc
         id="desc280">{
    &quot;connectTo&quot;: &quot;face&quot;
}</desc>
    </path>
    <path
       style="fill:#2b0000;stroke-width:0.210546"
       d="m 41.979646,16.734394 -1.061208,1.929256 1.113843,1.819031 0.864729,-1.923759 z"
       id="leftEye"
       sodipodi:nodetypes="ccccc">
      <desc
         id="desc280-7">{
    &quot;connectTo&quot;: &quot;face&quot;
}</desc>
    </path>
  </g>
</svg>

<?xml version="1.0" encoding="UTF-8" standalone="no"?>
<!-- Created with Inkscape (http://www.inkscape.org/) -->

<svg
   sodipodi:docname="person.svg"
   inkscape:version="1.2.1 (2ed6d7ae0b, 2022-08-22, custom)"
   id="svg10609"
   version="1.1"
   viewBox="0 0 100 100"
   height="100mm"
   width="100mm"
   xmlns:inkscape="http://www.inkscape.org/namespaces/inkscape"
   xmlns:sodipodi="http://sodipodi.sourceforge.net/DTD/sodipodi-0.dtd"
   xmlns="http://www.w3.org/2000/svg"
   xmlns:svg="http://www.w3.org/2000/svg">
  <sodipodi:namedview
     id="namedview10611"
     pagecolor="#ffffff"
     bordercolor="#000000"
     borderopacity="0.25"
     inkscape:showpageshadow="2"
     inkscape:pageopacity="0.0"
     inkscape:pagecheckerboard="0"
     inkscape:deskcolor="#d1d1d1"
     inkscape:document-units="mm"
     showgrid="false"
     inkscape:zoom="4.1691932"
     inkscape:cx="162.62139"
     inkscape:cy="210.71223"
     inkscape:window-width="1846"
     inkscape:window-height="1016"
     inkscape:window-x="74"
     inkscape:window-y="27"
     inkscape:window-maximized="1"
     inkscape:current-layer="layer1" />
  <defs
     id="defs10606" />
  <g
     inkscape:label="Layer 1"
     inkscape:groupmode="layer"
     id="layer1">
    <path
       style="fill:#ffccaa;fill-opacity:1;stroke:none;stroke-width:1.03588;stroke-opacity:1"
       d="M 39.1876 58.0533 L 44.4013 57.4457 L 44.9996 42.6083 L 39.045 42.5731"
       id="leftArm2"
       sodipodi:nodetypes="cccc"
       inkscape:transform-center-x="-0.17517316"
       inkscape:transform-center-y="7.635025">
      <desc
         id="desc18761-5-2">{
    &quot;connectTo&quot;: &quot;leftArm1&quot;
}</desc>
    </path>
    <path
       style="fill:#ffccaa;fill-opacity:1;stroke:none;stroke-width:1.03588;stroke-opacity:1"
       d="M 39.461 67.0371 L 39.3525 70.4673 L 41.4412 71.9801 L 46.0389 70.8551 L 45.8546 67.9547 L 44.9045 65.8719 L 44.4082 57.4339 L 41.671 55.0639 L 39.1452 57.1316"
       id="leftArm3"
       sodipodi:nodetypes="ccccccccc"
       inkscape:transform-center-x="-1.510401"
       inkscape:transform-center-y="7.0148374">
      <desc
         id="desc18761-5-6-0">{
    &quot;connectTo&quot;: &quot;leftArm2&quot;
}</desc>
    </path>
    <path
       style="fill:#000080;fill-opacity:1;stroke:none;stroke-width:1.03588;stroke-opacity:1"
       d="M 39.4378 36.4647 L 37.9953 43.0743 L 46.7256 42.976 L 45.789 36.4009 L 44.0092 35.4131 L 41.4307 35.3853 L 39.4378 36.4647"
       id="leftArm1"
       sodipodi:nodetypes="ccccccc"
       inkscape:transform-center-x="-0.12042133"
       inkscape:transform-center-y="1.303412">
      <desc
         id="desc18761-3">{
    &quot;connectTo&quot;: &quot;body&quot;
}</desc>
    </path>
    <path
       style="fill:#550000;stroke-width:0.264583"
       d="M 26.078 66.0551 L 30.6847 71.8701 L 36.1566 71.9125 L 41.0654 66.4236 L 26.078 66.0551"
       id="pantsTop"
       sodipodi:nodetypes="ccccc"
       inkscape:transform-center-x="-0.43027696"
       inkscape:transform-center-y="7.7052848">
      <desc
         id="desc908-9-5">{
    &quot;connectTo&quot;: &quot;body&quot;
}</desc>
    </path>
    <path
       style="fill:#550000;stroke-width:0.264583"
       d="M 33.9703 78.1984 L 32.9716 83.1433 L 33.8582 93.6104 L 40.7425 93.1175 L 40.6038 82.5189 L 39.0851 77.6552 L 33.9703 78.1984"
       id="rightLeg2"
       sodipodi:nodetypes="ccccccc"
       inkscape:transform-center-x="-0.042614076"
       inkscape:transform-center-y="4.6442077">
      <desc
         id="desc908-0-0">{
    &quot;connectTo&quot;: &quot;rightLeg1&quot;
}</desc>
    </path>
    <path
       style="fill:#000000;stroke-width:0.264583"
       d="M 33.4662 93.0694 L 33.0124 99.933 L 49.1869 100.014 L 48.8249 97.0926 L 44.6825 96.4847 L 41.7415 93.1698 L 33.4662 93.0694"
       id="rightLeg3"
       sodipodi:nodetypes="ccccccc"
       inkscape:transform-center-x="-3.4307351"
       inkscape:transform-center-y="3.358924">
      <desc
         id="desc1220-3">{
    &quot;connectTo&quot;: &quot;rightLeg2&quot;
}</desc>
    </path>
    <path
       style="fill:#550000;stroke-width:0.264583"
       d="M 31.7487 65.351 L 32.9771 83.1377 L 40.6449 82.4832 L 41.211 64.6485 L 31.7487 65.351"
       id="rightLeg1"
       sodipodi:nodetypes="ccccc"
       inkscape:transform-center-x="-0.43027696"
       inkscape:transform-center-y="7.7052848">
      <desc
         id="desc908-9">{
    &quot;connectTo&quot;: &quot;body&quot;
}</desc>
    </path>
    <path
       style="fill:#550000;stroke-width:0.264583"
       d="M 26.2315 77.9568 L 24.8361 82.8047 L 24.8729 93.3092 L 31.7746 93.3749 L 32.4937 82.7997 L 31.3735 77.8291 L 26.2315 77.9568"
       id="leftLeg2"
       sodipodi:nodetypes="ccccccc"
       inkscape:transform-center-x="0.17568806"
       inkscape:transform-center-y="4.6341045">
      <desc
         id="desc908-0">{
    &quot;connectTo&quot;: &quot;leftLeg1&quot;
}</desc>
    </path>
    <path
       style="fill:#000000;stroke-width:0.264583"
       d="M 24.3007 93.0413 L 23.8469 99.9048 L 40.0214 99.9861 L 39.6594 97.0645 L 35.517 96.4565 L 32.576 93.1416 L 24.3007 93.0413"
       id="leftLeg3"
       sodipodi:nodetypes="ccccccc"
       inkscape:transform-center-x="-3.7710057"
       inkscape:transform-center-y="3.4891278">
      <desc
         id="desc1220">{
    &quot;connectTo&quot;: &quot;leftLeg2&quot;
}</desc>
    </path>
    <path
       style="fill:#550000;stroke-width:0.264583"
       d="M 28.9967 62.3837 L 25.6763 66.4058 L 24.8419 82.7995 L 32.5376 82.7675 L 34.0066 66.2148"
       id="leftLeg1"
       sodipodi:nodetypes="ccccc"
       inkscape:transform-center-x="0.14846029"
       inkscape:transform-center-y="5.5769306">
      <desc
         id="desc908">{
    &quot;connectTo&quot;: &quot;body&quot;
}</desc>
    </path>
    <path
       style="fill:#2b0000;stroke:none;stroke-width:1.03588;stroke-opacity:1"
       d="M 30.2553 68.2649 L 37.5255 67.8448 L 41.5284 66.1849 L 43.0219 38.3349 L 39.9904 32.8636 L 26.8553 33.1181 L 23.6861 44.9705 L 24.9655 66.3975"
       id="body"
       sodipodi:nodetypes="cccccccc"
       inkscape:transform-center-x="0.79391521"
       inkscape:transform-center-y="-49.981786" />
    <path
       style="fill:#ffccaa;fill-opacity:1;stroke:none;stroke-width:1.03588;stroke-opacity:1"
       d="M 21.6853 57.8677 L 23.9116 59.7529 L 26.9178 57.4532 L 28.0638 42.648 L 21.9938 42.3985"
       id="rightArm2"
       sodipodi:nodetypes="ccccc"
       inkscape:transform-center-x="-0.38024573"
       inkscape:transform-center-y="7.4654316">
      <desc
         id="desc18761-5">{
    &quot;connectTo&quot;: &quot;rightArm1&quot;
}</desc>
    </path>
    <path
       style="fill:#ffccaa;fill-opacity:1;stroke:none;stroke-width:1.03588;stroke-opacity:1"
       d="M 21.6266 66.8555 L 21.3915 70.2793 L 23.4228 71.8683 L 28.059 70.9139 L 29.6204 67.125 L 26.9969 66.6316 L 26.9251 57.4416 L 23.5877 54.4065 L 21.6769 56.9451"
       id="rightArm3"
       sodipodi:nodetypes="ccccccccc"
       inkscape:transform-center-x="-1.340209"
       inkscape:transform-center-y="7.0828346">
      <desc
         id="desc18761-5-6">{
    &quot;connectTo&quot;: &quot;rightArm2&quot;
}</desc>
    </path>
    <path
       style="fill:#ffccaa;fill-opacity:1;stroke:none;stroke-width:1.03588;stroke-opacity:1"
       d="M 41.8556 12.463 L 34.1579 10.6826 L 25.6527 11.6687 L 25.7311 23.6177 L 28.1207 29.3971 L 30.305 33.1499 L 36.3494 33.1805 L 38.9377 29.636 L 42.943 29.6905 L 44.0385 24.2637 L 43.9164 17.5435"
       id="face"
       sodipodi:nodetypes="ccccccccccc">
      <desc
         id="desc230">{
    &quot;connectTo&quot;: &quot;body&quot;
}</desc>
    </path>
    <path
       style="fill:#000080;fill-opacity:1;stroke:none;stroke-width:1.03588;stroke-opacity:1"
       d="M 22.7328 36.3031 L 21.0471 42.8549 L 29.7751 43.0792 L 29.082 36.4739 L 27.3398 35.4211 L 24.7641 35.298 L 22.7328 36.3031"
       id="rightArm1"
       sodipodi:nodetypes="ccccccc"
       inkscape:transform-center-x="0.1083783"
       inkscape:transform-center-y="1.1257606">
      <desc
         id="desc18761">{
    &quot;connectTo&quot;: &quot;body&quot;
}</desc>
    </path>
    <path
       style="fill:#550000;stroke-width:0.29905"
       d="M 33.2264 8.51151 L 24.0821 11.8174 L 20.9556 20.7088 L 23.9594 26.7521 L 28.99 28.4401 L 27.0992 20.8549 L 29.1583 18.9881 L 30.9037 23.2806 L 32.9257 23.5617 L 34.2725 15.4587 L 43.4311 13.4593 L 46.5363 7.15628 L 40.0088 8.43795 L 33.2264 8.51151"
       id="hair"
       sodipodi:nodetypes="cccccccccccccc">
      <desc
         id="desc793">{
    &quot;connectTo&quot;: &quot;face&quot;
}</desc>
    </path>
    <path
       style="fill:#2b0000;stroke-width:0.210546"
       d="M 38.2764 17.5251 L 37.2152 19.4544 L 38.3291 21.2734 L 39.1938 19.3496 L 38.2764 17.5251"
       id="rightEye"
       sodipodi:nodetypes="ccccc">
      <desc
         id="desc280">{
    &quot;connectTo&quot;: &quot;face&quot;
}</desc>
    </path>
    <path
       style="fill:#2b0000;stroke-width:0.210546"
       d="M 41.9796 16.7344 L 40.9184 18.6637 L 42.0323 20.4827 L 42.897 18.5589 L 41.9796 16.7344"
       id="leftEye"
       sodipodi:nodetypes="ccccc">
      <desc
         id="desc280-7">{
    &quot;connectTo&quot;: &quot;face&quot;
}</desc>
    </path>
  </g>
</svg>
